assets/images/icon-quotes.svg

<svg fill="none" height="121" viewBox="0 0 138 121" width="138" xmlns="http://www.w3.org/2000/svg"><path d="m126.165 0 11.21 11.2733c-7.18 7.1815-13.042 14.1125-17.585 20.793-4.396 6.5134-7.18 11.4403-8.352 14.7805s-2.272 7.3485-3.297 12.0248l.879 1.5031c9.818 0 16.998 2.4217 21.541 7.2651 4.543 4.8433 6.814 12.3588 6.814 22.5465 0 7.8496-2.491 14.9477-7.473 21.2937-4.836 6.347-10.917 9.52-18.244 9.52-8.353 0-15.3136-2.672-20.882-8.017-5.5685-5.344-8.3527-13.945-8.3527-25.8029 0-15.6991 4.2496-31.8992 12.7488-48.6004 8.6459-16.8682 18.9769-29.72808 30.9929-38.5797zm-81.5485 0 11.2102 11.2733c-7.1804 7.1815-12.9686 14.029-17.3647 20.5424-4.3962 6.5135-7.2537 11.5238-8.5725 15.0311-1.1723 3.5072-2.2713 7.5155-3.2971 12.0248l.8792 1.5031c9.8181 0 16.9984 2.4217 21.5411 7.2651 4.5427 4.8433 6.814 12.3588 6.814 22.5465 0 7.8496-2.4912 14.9477-7.4734 21.2937-4.8358 6.347-10.9171 9.52-18.244 9.52-8.3527 0-15.3132-2.672-20.88164-8.017-5.56844-5.344-8.35266-13.945-8.35266-25.8029 0-15.6991 4.2496-31.8992 12.7488-48.6004 8.6457-16.8682 18.9766-29.72808 30.9927-38.5797z" fill="#fff" opacity=".2"/></svg>

<svg width="138" height="121" viewBox="0 0 138 121" fill="none" xmlns="http://www.w3.org/2000/svg">
<path opacity="0.2" d="M126.165 0L137.375 11.2733C130.195 18.4548 124.333 25.3858 119.79 32.0663C115.394 38.5797 112.61 43.5066 111.438 46.8468C110.266 50.187 109.166 54.1953 108.141 58.8716L109.02 60.3747C118.838 60.3747 126.018 62.7964 130.561 67.6398C135.104 72.4831 137.375 79.9986 137.375 90.1863C137.375 98.0359 134.884 105.134 129.902 111.48C125.066 117.827 118.985 121 111.658 121C103.305 121 96.3444 118.328 90.776 112.983C85.2075 107.639 82.4233 99.038 82.4233 87.1801C82.4233 71.481 86.6729 55.2809 95.1721 38.5797C103.818 21.7115 114.149 8.85162 126.165 0ZM44.6165 0L55.8267 11.2733C48.6463 18.4548 42.8581 25.3023 38.462 31.8157C34.0658 38.3292 31.2083 43.3395 29.8895 46.8468C28.7172 50.354 27.6182 54.3623 26.5924 58.8716L27.4716 60.3747C37.2897 60.3747 44.47 62.7964 49.0127 67.6398C53.5554 72.4831 55.8267 79.9986 55.8267 90.1863C55.8267 98.0359 53.3355 105.134 48.3533 111.48C43.5175 117.827 37.4362 121 30.1093 121C21.7566 121 14.7961 118.328 9.22766 112.983C3.65922 107.639 0.875 99.038 0.875 87.1801C0.875 71.481 5.1246 55.2809 13.6238 38.5797C22.2695 21.7115 32.6004 8.85162 44.6165 0Z" fill="white"/>
</svg>
